lib/icons/report.svg

<svg width="16" height="16" viewBox="0 0 16 16" fill="none" xmlns="http://www.w3.org/2000/svg">
<path fill-rule="evenodd" clip-rule="evenodd" d="M5.31316 -0.000732422C4.48474 -0.000732422 3.81316 0.670839 3.81316 1.49927V7.99565L3.80392 7.99561H1.00049C0.448204 7.99561 0.000488281 8.44332 0.000488281 8.99561V13.5839C0.000488281 14.8986 1.05682 15.9666 2.36703 15.9854V16.0008H12.4994C14.4324 16.0008 15.9994 14.4338 15.9994 12.5008V1.49927C15.9994 0.67084 15.3278 -0.000732422 14.4994 -0.000732422H5.31316ZM4.3417 15.0008H12.4994C13.8801 15.0008 14.9994 13.8815 14.9994 12.5008V1.49927C14.9994 1.22313 14.7755 0.999268 14.4994 0.999268H5.31316C5.03702 0.999268 4.81316 1.22312 4.81316 1.49927V13.8009H4.79425C4.75428 14.2472 4.59222 14.6584 4.3417 15.0008ZM1.00049 8.99561H3.80392L3.80392 13.5839C3.80392 14.3581 3.17635 14.9856 2.4022 14.9856C1.62806 14.9856 1.00049 14.3581 1.00049 13.5839V8.99561ZM6.94583 3.9115C6.94583 3.63536 7.16969 3.4115 7.44583 3.4115H12.5451C12.8213 3.4115 13.0451 3.63536 13.0451 3.9115C13.0451 4.18764 12.8213 4.4115 12.5451 4.4115H7.44583C7.16969 4.4115 6.94583 4.18764 6.94583 3.9115ZM7.44583 6.30237C7.16969 6.30237 6.94583 6.52623 6.94583 6.80237C6.94583 7.07851 7.16969 7.30237 7.44583 7.30237H12.5451C12.8213 7.30237 13.0451 7.07851 13.0451 6.80237C13.0451 6.52623 12.8213 6.30237 12.5451 6.30237H7.44583ZM6.94583 9.58752C6.94583 9.31138 7.16969 9.08752 7.44583 9.08752H12.5451C12.8213 9.08752 13.0451 9.31138 13.0451 9.58752C13.0451 9.86367 12.8213 10.0875 12.5451 10.0875H7.44583C7.16969 10.0875 6.94583 9.86367 6.94583 9.58752ZM7.44583 12.0136C7.16969 12.0136 6.94583 12.2375 6.94583 12.5136C6.94583 12.7898 7.16969 13.0136 7.44583 13.0136H9.37043C9.64658 13.0136 9.87043 12.7898 9.87043 12.5136C9.87043 12.2375 9.64658 12.0136 9.37043 12.0136H7.44583Z" fill="#5275FF"/>
</svg>

<svg width="16" height="16" fill="none" xmlns="http://www.w3.org/2000/svg"><path fill-rule="evenodd" clip-rule="evenodd" d="M5.313 0a1.5 1.5 0 0 0-1.5 1.5v6.496H1a1 1 0 0 0-1 1v4.588a2.402 2.402 0 0 0 2.367 2.401v.016h10.132a3.5 3.5 0 0 0 3.5-3.5V1.499A1.5 1.5 0 0 0 14.5 0H5.313Zm-.971 15h8.157a2.5 2.5 0 0 0 2.5-2.5v-11a.5.5 0 0 0-.5-.5H5.313a.5.5 0 0 0-.5.5v12.3h-.019a2.39 2.39 0 0 1-.452 1.2ZM1 8.997h2.804v4.588a1.402 1.402 0 1 1-2.804 0V8.996ZM6.946 3.91a.5.5 0 0 1 .5-.5h5.1a.5.5 0 1 1 0 1h-5.1a.5.5 0 0 1-.5-.5Zm.5 2.391a.5.5 0 0 0 0 1h5.1a.5.5 0 1 0 0-1h-5.1Zm-.5 3.286a.5.5 0 0 1 .5-.5h5.1a.5.5 0 1 1 0 1h-5.1a.5.5 0 0 1-.5-.5Zm.5 2.426a.5.5 0 0 0 0 1H9.37a.5.5 0 1 0 0-1H7.446Z" fill="#5275FF"/></svg>
